X:1743
T:Polska efter Monis Olle
R:Polska
S:Efter Monis Olle
O:Rättvik, Dalarna
Z:Håkan Lidén 2010-01-11
N:Från [[http://www.youtube.com/watch?v=xR2hxHnqzN4 | YouTube]] med Olle Hansson
M:3/4
L:1/8
K:Gdor
|: d>d c/d/c/A/ B>c | (3B2 A2 ^F2 D>D | D/^F/A/F/ D/G/B/G/ A/^c/e/c/ | de/g/ =fe/f/ d2 |
d>d c/d/c/A/ B>c | (3B2 A2 ^F2 D>D | D/^F/A/F/ D/G/B/G/ AA/G/ | ^F/G/A/F/ G4 :|
|: g^f/g/ ba a>g | g/a/g/^f/ d3 e | =f>g f/g/f/e/ d>d | c/d/c/A/ Bc d2 |
g/a/g/f/ d2 c>A | BA/G/ A3 A | B/A/B/c/ d>c BA/G/ | A^F G4 :|
(:musicend:)
(:music:)
